!!!SOCIAL_FUNCTION:	social songs
!!!PDT:	1943
!!!OTL: No_52_Song_of_Dance_With_Wolf_Headdress_(c).krn
!!!REG: British Columbia
**kern	**kern
*staff2	*staff1
=1-	=1-
=	=
*clefF4	*clefG2
*k[]	*k[]
*M2/4	*M2/4
4GG/	[2a/
4GG/	.
=2	=2
4GG/	8a/L]
.	8g#/J
4GG/	8e/
.	16r
.	16f/
=3	=3
4GG/	12e/L
.	12d/
.	12c/J
4GG/	8d/L
.	8c/J
=4	=4
2r	[2A/
=5	=5
2r	8.A/L]
.	16A/Jk
.	8A/
.	8r
=6	=6
2r	8.a/L
.	16g/Jk
.	8a/L
.	8g/J
=7	=7
2r	(8.a/L
.	16g/Jk)
.	8.g/L
.	16e/Jk
=8	=8
2r	12e/L
.	12d/
.	12c/J
.	8d/L
.	8c/J
=9	=9
2r	4A/
.	8c/
.	8r
=10	=10
2r	8.e/L
.	16d/Jk
.	8e/L
.	8d/J
=11	=11
2r	2c/
=12	=12
2r	8d/L
.	8c/J
.	8A/
.	8r
=13	=13
2r	8.e/L
.	16d/Jk
.	8e/L
.	8d/J
=14	=14
2r	4c/
.	8A/
.	16r
.	16c/
=15	=15
2r	8d/L
.	8c/J
.	8c/L
.	8c/J
=16	=16
2r	[2A/
=17	=17
2r	4A/]
.	4r
==:|!	==:|!
*-	*-
